X:1
T:Echoes From Forest Garden -- Reel
R:reel
N:169
B:Ryan's Mammoth Collection
Z:Contributed by Ray Davies,  ray:davies99.freeserve.co.uk
M:2/4
L:1/16
K:A
vAB|\
cAGA FAEA | cAGA a2(gf) | eAGA FAEA | z4  vB(e^d=d) |
cAGA FAEA | cAGA a2(gf) | eAGA FAEA | c"4"edB A2  ::
cd|\
e^dfe aecA | BcBA GEFG | (AG)(BA) (cB)(dc) | e^dfe Bc=d^d |
e^dfe aecA | GcBA GEFG | Aagf edce | ((3gfe)((3dcB) A2:|
